static/assets/images/exchanges/spookyswap.svg

<svg width="272" height="256" viewBox="0 0 272 256" fill="none" xmlns="http://www.w3.org/2000/svg">
<path fill-rule="evenodd" clip-rule="evenodd" d="M30.9273 95.9214C29.1008 107.681 31.2512 119.782 33.4845 131.41C34.3451 133.268 36.2308 134.519 38.5551 135.32C33.7881 145.386 31.1676 156.363 31.1676 167.854C31.1676 216.516 78.2587 256 136.342 256C194.426 256 241.55 216.607 241.55 167.854C241.55 156.243 238.877 145.158 234.018 135.009C235.962 134.208 237.512 133.044 238.271 131.41C240.505 119.782 242.646 107.681 240.82 95.9214C239.11 80.1409 233.697 75.3236 217.441 79.3682C209.171 81.2893 198.271 86.1722 189.889 91.9157C174.201 84.1278 155.892 79.6588 136.342 79.6588C116.568 79.6588 98.068 84.2353 82.2653 92.1942C73.8338 86.3301 62.7116 81.3201 54.3152 79.3682C38.0508 75.3236 32.6459 80.1409 30.9273 95.9214ZM92.165 165.496C79.836 160.056 58.7647 161.434 58.7647 161.434C58.7647 161.434 59.7527 181.276 71.8493 188.012C86.1957 195.993 112.871 192.04 112.871 192.04C112.871 192.04 110.604 173.586 92.165 165.455V165.496ZM160.668 192.073C160.668 192.073 187.343 196.027 201.69 188.045C213.786 181.309 214.774 161.468 214.774 161.468C214.774 161.468 193.703 160.089 181.374 165.529C162.935 173.586 160.668 191.998 160.668 191.998V192.073ZM131.078 206.059C131.078 207.522 133.793 208.709 137.139 208.709C140.485 208.709 143.2 207.522 143.2 206.059C143.2 204.598 140.485 203.419 137.139 203.419C133.793 203.419 131.078 204.556 131.078 206.059Z" fill="#F2F4F8"/>
<path fill-rule="evenodd" clip-rule="evenodd" d="M256.205 193.842C246.36 190.04 235.905 188.07 225.352 188.029H225.369C222.696 188.029 222.696 183.876 225.369 183.876C236.296 183.911 247.126 185.941 257.325 189.864C257.841 190.022 258.277 190.372 258.544 190.841C258.811 191.31 258.889 191.864 258.761 192.389C258.612 192.919 258.259 193.369 257.781 193.641C257.302 193.913 256.736 193.985 256.205 193.842ZM16.0499 189.956C26.2524 186.033 37.0842 184.004 48.0141 183.967V183.992C50.6875 183.992 50.6792 188.145 48.0141 188.145C37.4589 188.182 26.9998 190.153 17.1541 193.958C16.6237 194.099 16.0592 194.026 15.5825 193.754C15.1057 193.482 14.7548 193.033 14.6054 192.504C14.4732 191.976 14.5494 191.416 14.8184 190.941C15.0873 190.467 15.5282 190.113 16.0499 189.956ZM37.213 201.857C42.3186 200.231 47.6294 199.339 52.9858 199.208C55.6443 199.223 55.6393 203.36 52.9709 203.36C48.0854 203.488 43.2422 204.302 38.5829 205.777C34.2491 207.048 29.2925 208.842 26.1294 211.774C24.17 213.592 21.2309 210.661 23.1986 208.842C27.0426 205.288 32.3313 203.327 37.213 201.857ZM52.9858 199.208H52.9875H52.9709H52.9858ZM57.7195 209.581C53.5562 211.364 49.5535 213.501 45.7558 215.968C41.9196 218.333 38.5441 221.375 35.7929 224.946C35.5168 225.421 35.4396 225.986 35.578 226.518C35.7163 227.051 36.0592 227.506 36.5318 227.786C37.0106 228.052 37.5734 228.124 38.1034 227.986C38.6335 227.849 39.0904 227.512 39.3796 227.047C41.7125 223.824 45.0584 221.325 48.3711 219.19C52.0071 216.882 55.8217 214.868 59.7785 213.169C60.2508 212.889 60.594 212.434 60.7338 211.902C60.8736 211.37 60.7988 210.805 60.5257 210.328C60.238 209.864 59.7832 209.528 59.255 209.388C58.7267 209.249 58.1653 209.318 57.6863 209.581H57.7195ZM220.38 203.277C225.266 203.399 230.11 204.209 234.768 205.686C237.176 206.37 239.527 207.239 241.8 208.285C243.763 209.144 245.584 210.291 247.205 211.691C249.165 213.501 252.103 210.578 250.145 208.75C246.326 205.204 241.07 203.236 236.155 201.766C231.049 200.139 225.737 199.251 220.38 199.124C217.707 199.124 217.699 203.277 220.38 203.277ZM224.964 219.066C221.372 216.845 217.618 214.901 213.73 213.252V213.211C213.259 212.929 212.918 212.474 212.778 211.943C212.638 211.412 212.712 210.847 212.983 210.37C213.275 209.908 213.732 209.574 214.261 209.437C214.789 209.3 215.351 209.369 215.831 209.631C223.917 213.16 232.427 217.696 237.716 224.996C237.989 225.472 238.066 226.036 237.928 226.568C237.79 227.099 237.448 227.554 236.977 227.836C236.499 228.101 235.936 228.171 235.408 228.032C234.878 227.893 234.423 227.555 234.138 227.089C231.746 223.792 228.367 221.233 224.964 219.066Z" fill="#F2F4F8"/>
<path d="M0.275144 141.991C2.19296 139.001 19.0467 130.007 39.9023 124.666C44.4037 111.878 49.9577 99.485 56.5071 87.6158C56.4241 87.6158 73.1866 57.5168 73.1119 57.5002C68.305 55.3119 63.6894 52.7254 59.3133 49.7679C58.5724 49.1977 57.9008 48.5427 57.3124 47.8161C56.8683 47.0828 56.6382 46.2398 56.6482 45.3826C56.6482 44.685 57.6362 43.4391 58.0763 42.891C59.199 41.5698 60.4383 40.3523 61.7791 39.2532C64.9751 36.6353 68.3332 34.2219 71.8333 32.0275C73.4938 30.9312 75.2206 29.8597 76.9227 28.78C88.8782 21.1639 95.4285 15.4332 106.38 9.13764C116.841 3.14118 121.922 -0.554775 134.051 0.0681644C149.294 0.0681644 187.186 48.356 204.273 73.2391C214.518 88.1886 228.266 115.107 233.331 125.231C234.543 125.539 235.639 125.829 236.652 126.128C252.194 130.795 267.437 137.64 271.165 141.991C274.486 145.862 259.973 147.59 245.668 150.081C231.363 152.573 182.836 153.81 136.202 154.126C89.5675 154.441 35.1368 152.88 23.2893 151.011C11.4418 149.143 -2.10763 145.721 0.275144 141.991Z" fill="#6665DD"/>
<path d="M220.329 100.282C220.329 100.282 189.61 92.5829 135.488 92.5829C77.3704 92.5829 49.3832 101.553 49.3832 101.553C49.3832 101.553 46.0622 107.864 44.6176 111.519C43.173 115.173 39.9023 124.666 39.9023 124.666C39.9023 124.666 82.186 117.092 136.301 117.092C168.886 117.227 201.409 119.977 233.555 125.315C233.555 125.315 228.648 113.827 225.709 108.928C222.77 104.027 220.329 100.282 220.329 100.282Z" fill="#FF99A5"/>
<path d="M37.5029 35.3245C41.0232 34.8096 45.8053 45.5901 45.8053 45.5901C45.8053 45.5901 56.8807 42.6085 58.6075 45.5901C60.3344 48.5717 50.82 55.731 50.82 55.731C50.82 55.731 56.5652 65.8387 54.747 67.94C52.9287 70.0413 42.6836 63.6627 42.6836 63.6627C42.6836 63.6627 34.8711 72.4665 32.3222 71.1376C29.7734 69.8088 32.6627 58.3389 32.6627 58.3389C32.6627 58.3389 21.6122 53.638 22.3677 50.8475C23.1232 48.0568 34.6386 47.2096 34.6386 47.2096C34.6386 47.2096 33.991 35.8395 37.5029 35.3245Z" fill="#FFE600"/>
</svg>

<svg xmlns="http://www.w3.org/2000/svg" fill="none" viewBox="0 0 272 256"><path fill="#F2F4F8" fill-rule="evenodd" d="M30.927 95.921c-1.826 11.76.324 23.861 2.557 35.489.861 1.858 2.747 3.109 5.071 3.91-4.767 10.066-7.387 21.043-7.387 32.534 0 48.662 47.09 88.146 105.174 88.146s105.208-39.393 105.208-88.146c0-11.611-2.673-22.696-7.532-32.845 1.944-.801 3.494-1.965 4.253-3.599 2.234-11.628 4.375-23.729 2.549-35.489-1.71-15.78-7.123-20.597-23.379-16.553-8.27 1.921-19.17 6.804-27.552 12.548-15.688-7.788-33.997-12.257-53.547-12.257-19.774 0-38.274 4.576-54.077 12.535-8.431-5.864-19.553-10.874-27.95-12.826-16.264-4.044-21.67.773-23.388 16.553m61.238 69.575c-12.329-5.44-33.4-4.062-33.4-4.062s.988 19.842 13.084 26.578c14.347 7.981 41.022 4.028 41.022 4.028s-2.267-18.454-20.706-26.585zm68.503 26.577s26.675 3.954 41.022-4.028c12.096-6.736 13.084-26.577 13.084-26.577s-21.071-1.379-33.4 4.061c-18.439 8.057-20.706 26.469-20.706 26.469zm-29.59 13.986c0 1.463 2.715 2.65 6.061 2.65s6.061-1.187 6.061-2.65c0-1.461-2.715-2.64-6.061-2.64s-6.061 1.137-6.061 2.64" clip-rule="evenodd"/><path fill="#F2F4F8" fill-rule="evenodd" d="M256.205 193.842a86.6 86.6 0 0 0-30.853-5.813h.017c-2.673 0-2.673-4.153 0-4.153a89.8 89.8 0 0 1 31.956 5.988 2.117 2.117 0 0 1 1.436 2.525 2.094 2.094 0 0 1-2.556 1.453M16.05 189.956a89.9 89.9 0 0 1 31.964-5.989v.025c2.673 0 2.665 4.153 0 4.153a86.5 86.5 0 0 0-30.86 5.813 2.09 2.09 0 0 1-2.549-1.454 2.125 2.125 0 0 1 1.445-2.548m21.163 11.901a56.5 56.5 0 0 1 15.773-2.649c2.658.015 2.653 4.152-.015 4.152a52.2 52.2 0 0 0-14.388 2.417c-4.334 1.271-9.29 3.065-12.454 5.997-1.959 1.818-4.898-1.113-2.93-2.932 3.844-3.554 9.132-5.515 14.014-6.985m15.773-2.649h.002-.017zm4.733 10.373a79 79 0 0 0-11.963 6.387 37.3 37.3 0 0 0-9.963 8.978 2.084 2.084 0 0 0 .739 2.84 2.13 2.13 0 0 0 2.848-.739c2.332-3.223 5.678-5.722 8.991-7.857a81 81 0 0 1 11.407-6.021 2.09 2.09 0 0 0 .748-2.841 2.13 2.13 0 0 0-2.84-.747zm162.661-6.304c4.886.122 9.73.932 14.388 2.409a48.6 48.6 0 0 1 7.032 2.599 21.4 21.4 0 0 1 5.405 3.406c1.96 1.81 4.898-1.113 2.94-2.941-3.819-3.546-9.075-5.514-13.99-6.984a56.4 56.4 0 0 0-15.775-2.642c-2.673 0-2.681 4.153 0 4.153m4.584 15.789a83 83 0 0 0-11.234-5.814v-.041a2.1 2.1 0 0 1-.747-2.841 2.15 2.15 0 0 1 2.848-.739c8.086 3.529 16.596 8.065 21.885 15.365a2.09 2.09 0 0 1-.739 2.84 2.124 2.124 0 0 1-2.839-.747c-2.392-3.297-5.771-5.856-9.174-8.023" clip-rule="evenodd"/><path fill="#6665DD" d="M.275 141.991c1.918-2.99 18.772-11.984 39.627-17.325a245 245 0 0 1 16.605-37.05c-.083 0 16.68-30.1 16.605-30.116a95 95 0 0 1-13.799-7.732 12 12 0 0 1-2-1.952 4.6 4.6 0 0 1-.665-2.433c0-.698.988-1.944 1.428-2.492a29 29 0 0 1 3.703-3.638 98 98 0 0 1 10.054-7.225c1.66-1.097 3.388-2.168 5.09-3.248 11.955-7.616 18.505-13.347 29.457-19.642 10.461-5.997 15.542-9.693 27.671-9.07 15.243 0 53.135 48.288 70.222 73.171 10.245 14.95 23.993 41.868 29.058 51.992a91 91 0 0 1 3.321.897c15.542 4.667 30.785 11.512 34.513 15.863 3.321 3.871-11.192 5.599-25.497 8.09-14.305 2.492-62.832 3.729-109.466 4.045s-101.065-1.246-112.913-3.115c-11.847-1.868-25.397-5.29-23.014-9.02"/><path fill="#FF99A5" d="M220.329 100.282s-30.719-7.7-84.841-7.7c-58.118 0-86.105 8.971-86.105 8.971s-3.32 6.311-4.765 9.966-4.716 13.147-4.716 13.147 42.284-7.574 96.399-7.574a609 609 0 0 1 97.254 8.223s-4.907-11.488-7.846-16.387c-2.939-4.901-5.38-8.646-5.38-8.646"/><path fill="#FFE600" d="M37.503 35.325c3.52-.515 8.302 10.265 8.302 10.265s11.076-2.982 12.803 0c1.726 2.982-7.788 10.141-7.788 10.141s5.745 10.108 3.927 12.209-12.063-4.277-12.063-4.277-7.813 8.804-10.362 7.475.34-12.8.34-12.8-11.05-4.7-10.294-7.49c.755-2.791 12.27-3.638 12.27-3.638s-.647-11.37 2.865-11.885"/></svg>
